X:103
T:Sulphur Creek
C:Brian Pickell
D:Brian Pickell:Fresh Canadian Fiddle Tunes
R:jig
M:6/8
L:1/8
Z:robin.beech@mcgill.ca
K:G
g3 |: fed ded | cAG AGA | FDF GEG | FDF E2g | fed ded |
cAG AGA | B3 cAF |1 GBA G2g :|2 GBA G2 A |: B3 cBc | dBG GBd | g3 aga |
bag dgf | ece dBd | cAG FGA | B3 cAF |1 GBA G2 A :|2 GBA G2 g |]
